packages/kaspersky-hexa-ui-icons/src/iconsSVGs/16/ParentalControl.svg

<svg width="16" height="16" viewBox="0 0 16 16" fill="none" xmlns="http://www.w3.org/2000/svg">
<path fill-rule="evenodd" clip-rule="evenodd" d="M5.31907 2.68335C4.00029 2.68335 2.93121 3.75243 2.93121 5.0712C2.93121 6.38998 4.00029 7.45906 5.31907 7.45906C6.63784 7.45906 7.70692 6.38998 7.70692 5.0712C7.70692 3.75243 6.63784 2.68335 5.31907 2.68335ZM4.23121 5.0712C4.23121 4.4704 4.71826 3.98335 5.31907 3.98335C5.91987 3.98335 6.40692 4.4704 6.40692 5.0712C6.40692 5.67201 5.91987 6.15906 5.31907 6.15906C4.71826 6.15906 4.23121 5.67201 4.23121 5.0712Z" fill="black"/>
<path fill-rule="evenodd" clip-rule="evenodd" d="M11.3335 4.68335C10.2381 4.68335 9.35016 5.57132 9.35016 6.66668C9.35016 7.76205 10.2381 8.65002 11.3335 8.65002C12.4289 8.65002 13.3168 7.76205 13.3168 6.66668C13.3168 5.57132 12.4289 4.68335 11.3335 4.68335ZM10.6502 6.66668C10.6502 6.28929 10.9561 5.98335 11.3335 5.98335C11.7109 5.98335 12.0168 6.28929 12.0168 6.66668C12.0168 7.04408 11.7109 7.35002 11.3335 7.35002C10.9561 7.35002 10.6502 7.04408 10.6502 6.66668Z" fill="black"/>
<path d="M13.8001 13.3167H10.2899C10.498 12.9473 10.6168 12.5209 10.6168 12.0667V12.0167H13.3501V11.4C13.3501 10.9858 13.0143 10.65 12.6001 10.65H10.6167C10.6149 10.1944 10.5358 9.7569 10.392 9.35004H12.6001C13.7323 9.35004 14.6501 10.2679 14.6501 11.4V12.4667C14.6501 12.9361 14.2696 13.3167 13.8001 13.3167Z" fill="black"/>
<path fill-rule="evenodd" clip-rule="evenodd" d="M8.06676 13.3167C8.22167 13.3167 8.36999 13.2885 8.50689 13.237C8.98009 13.0589 9.31678 12.6021 9.31678 12.0667V10.6667C9.31678 10.2858 9.23641 9.92365 9.09172 9.59633C8.68046 8.66592 7.74943 8.01666 6.66677 8.01666H4.0001C2.53654 8.01666 1.3501 9.20311 1.3501 10.6667V12.0667C1.3501 12.757 1.90974 13.3167 2.6001 13.3167H8.06676ZM4.0001 9.31666C3.25451 9.31666 2.6501 9.92108 2.6501 10.6667V12.0167H8.01676V10.6667C8.01676 9.92108 7.41235 9.31666 6.66677 9.31666H4.0001Z" fill="black"/>
</svg>

<svg xmlns="http://www.w3.org/2000/svg" width="16" height="16" fill="none" viewBox="0 0 16 16"><path fill="#000" fill-rule="evenodd" d="M5.319 2.6834c-1.3187 0-2.3878 1.069-2.3878 2.3878s1.0691 2.3879 2.3879 2.3879c1.3187 0 2.3878-1.0691 2.3878-2.3879S6.638 2.6833 5.3191 2.6833M4.2313 5.0711c0-.6008.487-1.0878 1.0879-1.0878.6008 0 1.0878.487 1.0878 1.0878S5.92 6.159 5.3191 6.159s-1.0879-.487-1.0879-1.0878m7.1023-.3879c-1.0954 0-1.9833.888-1.9833 1.9834S10.238 8.65 11.3335 8.65s1.9833-.888 1.9833-1.9833-.8879-1.9833-1.9833-1.9833m-.6833 1.9834a.6833.6833 0 1 1 1.3666 0 .6833.6833 0 0 1-1.3666 0m-2.5834 6.65c.1549 0 .3032-.0282.4401-.0797.4732-.1781.8099-.6349.8099-1.1703v-1.4c0-.3809-.0804-.743-.225-1.0704-.4113-.9304-1.3424-1.5796-2.425-1.5796H4c-1.4636 0-2.65 1.1864-2.65 2.65v1.4c0 .6903.5596 1.25 1.25 1.25zM4 9.3167c-.7456 0-1.35.6044-1.35 1.35v1.35h5.3667v-1.35c0-.7456-.6044-1.35-1.35-1.35zm9.8 4h-3.5102a2.54 2.54 0 0 0 .3269-1.25v-.05H13.35V11.4a.75.75 0 0 0-.75-.75h-1.9834a3.94 3.94 0 0 0-.2247-1.3H12.6c1.1322 0 2.05.9178 2.05 2.05v1.0667a.85.85 0 0 1-.85.85"/></svg>
